icons/bag-block.svg

<svg xmlns="http://www.w3.org/2000/svg" viewBox="0 0 24 24" fill="currentColor">
  <path d="M8.75 7c0-1.78579 1.4642-3.25 3.25-3.25.8718 0 1.6882.39887 2.2697.98034.5814.58148.9803 1.39782.9803 2.26966v.25h-6.5V7Zm-1.5.30946V7c0-2.61421 2.13579-4.75 4.75-4.75 1.3282 0 2.5118.60116 3.3303 1.41968C16.1488 4.48821 16.75 5.67184 16.75 7v.30946c2.2607.36187 4 2.33139 4 4.69054v6c0 2.1142-1.6358 3.75-3.75 3.75H7c-2.13037 0-3.75-1.7521-3.75-3.75v-6c0-2.35915 1.73934-4.32867 4-4.69054ZM8 8.75c-1.78579 0-3.25 1.4642-3.25 3.25v6c0 1.2021.98037 2.25 2.25 2.25h10c1.2858 0 2.25-.9642 2.25-2.25v-6c0-1.7858-1.4642-3.25-3.25-3.25H8Zm5.1072 3.1945c-.9374-.4807-2.0723-.3188-2.8768.4856-.81834.8184-.97171 1.9788-.46007 2.9254l3.33687-3.411Zm-2.2922 4.4881c.9059.4999 2.1251.3665 2.9547-.4632.8372-.8372.9785-2.0323.4238-2.9903l-3.3785 3.4535Zm4.0154-5.0631c-1.5929-1.59292-4.0677-1.59292-5.66063 0-1.58939 1.5894-1.59289 4.0568-.01051 5.6501 1.50974 1.6227 4.09414 1.5875 5.67114.0105 1.5929-1.5929 1.5929-4.0677 0-5.6606Z"/>
</svg>

<svg width="24" height="24" viewBox="0 0 24 24" fill="none" xmlns="http://www.w3.org/2000/svg">
<path fill-rule="evenodd" clip-rule="evenodd" d="M8.75 7C8.75 5.21421 10.2142 3.75 12 3.75C12.8718 3.75 13.6882 4.14887 14.2697 4.73034C14.8511 5.31182 15.25 6.12816 15.25 7V7.25H8.75V7ZM7.25 7.30946V7C7.25 4.38579 9.38579 2.25 12 2.25C13.3282 2.25 14.5118 2.85116 15.3303 3.66968C16.1488 4.48821 16.75 5.67184 16.75 7V7.30946C19.0107 7.67133 20.75 9.64085 20.75 12V18C20.75 20.1142 19.1142 21.75 17 21.75H7C4.86963 21.75 3.25 19.9979 3.25 18V12C3.25 9.64085 4.98934 7.67133 7.25 7.30946ZM8 8.75C6.21421 8.75 4.75 10.2142 4.75 12V18C4.75 19.2021 5.73037 20.25 7 20.25H17C18.2858 20.25 19.25 19.2858 19.25 18V12C19.25 10.2142 17.7858 8.75 16 8.75H8ZM13.1072 11.9445C12.1698 11.4638 11.0349 11.6257 10.2304 12.4301C9.41206 13.2485 9.25869 14.4089 9.77033 15.3555L13.1072 11.9445ZM10.815 16.4326C11.7209 16.9325 12.9401 16.7991 13.7697 15.9694C14.6069 15.1322 14.7482 13.9371 14.1935 12.9791L10.815 16.4326ZM14.8304 11.3695C13.2375 9.77658 10.7627 9.77658 9.16977 11.3695C7.58038 12.9589 7.57688 15.4263 9.15926 17.0196C10.669 18.6423 13.2534 18.6071 14.8304 17.0301C16.4233 15.4372 16.4233 12.9624 14.8304 11.3695Z" fill="black"/>
</svg>
